X:35
T:What a Beau My Granny Was
C:Aylemore MS
N:from the Knots of May repertoire
Q:1/4=180
I:abc2nwc
M:4/4
L:1/8
K:D
f3d e3c|d2B2A2G2|F2A2d2f2|e2A2A2g2|
f3d e3c|d2B2A2G2|F2A2B2c2|[1d2D2D2g2:|[2d2D2D2D2
|:A3F A2F2|B3G B2G2|F2A2d2f2|e2A2A2A2|
A3F A2F2|B3G B2G2|F2A2B2c2|d2D2D2D2:|


